dist/icons/svgs/info-outline.svg

<svg xmlns="http://www.w3.org/2000/svg" width="24" height="24" fill="currentcolor" class="icon-info-outline" viewBox="0 0 24 24">
  <path d="M10.4375 4.8125C10.4375 4.26562 10.7109 3.75781 11.2188 3.48438C11.6875 3.21094 12.2734 3.21094 12.7812 3.48438C13.25 3.75781 13.5625 4.26562 13.5625 4.8125C13.5625 5.39844 13.25 5.90625 12.7812 6.17969C12.2734 6.45312 11.6875 6.45312 11.2188 6.17969C10.7109 5.90625 10.4375 5.39844 10.4375 4.8125ZM8.875 9.8125C8.875 9.30469 9.26562 8.875 9.8125 8.875H12C12.5078 8.875 12.9375 9.30469 12.9375 9.8125V20.125H14.8125C15.3203 20.125 15.75 20.5547 15.75 21.0625C15.75 21.6094 15.3203 22 14.8125 22H9.1875C8.64062 22 8.25 21.6094 8.25 21.0625C8.25 20.5547 8.64062 20.125 9.1875 20.125H11.0625V10.75H9.8125C9.26562 10.75 8.875 10.3594 8.875 9.8125Z"/>
</svg>

<svg xmlns="http://www.w3.org/2000/svg" width="24" height="24" fill="currentColor" class="icon-info-outline" viewBox="0 0 24 24">
  <path d="M10.438 4.813c0-.547.273-1.055.78-1.329.47-.273 1.055-.273 1.563 0 .469.274.781.782.781 1.329 0 .585-.312 1.093-.78 1.367-.509.273-1.094.273-1.563 0-.508-.274-.781-.782-.781-1.367m-1.563 5c0-.508.39-.938.938-.938H12a.95.95 0 0 1 .938.938v10.312h1.874a.95.95 0 0 1 .938.938c0 .546-.43.937-.937.937H9.186c-.546 0-.937-.39-.937-.937 0-.508.39-.938.938-.938h1.874V10.75h-1.25c-.546 0-.937-.39-.937-.937"/>
</svg>
